X: 39454
T: Tarbert Ferry, The
R: reel
M: 4/4
K: Eminor
dc|BE (3EDE EDB,D|BE (3EDE FDFA|BE (3EDE E2FA|BABc dAFA|
BE (3EDE EDB,D|BE (3EDE FDFA|(3Bcd Ad B2AB|dBAF BE{F}E2||
(3Bcd ef d2 BA|Bdef dBA2|(3Bcd ef dedB|FADE FE (3EDE|
Bdef d2fd|(3Bcd ef gfef|g3e (3fga fe|dBAF BEE2||

